!!!ONB: MCCC : IFC0057_03 : Extracted Monophonic Melody
!!!COM: Chopin, Frédéric
!!!OPR: Mazurkas
!!!OMV: 3
!!!SCT: Op.63
!!!ODT: 1846///
**kern
*thru
*staff1
*clefG2
*k[f#c#g#]
*f#:
*M3/4
*MM180
4c#
=1
4.f#
8g#
8a
8b#
=2
12dd
12ee
12dd
4cc#
4ff#
=3
12cc#
12dd
12cc#
4b
4ff#
=4
12b
12cc#
12b
4a
4cc#
=5
12a
12b
12a
4g#
4cc#
=6
12g#
12a
12g#
4f#
4cc#
=7
12f#
12g#
12f#
4e
8d#
8g#
=8
4c#[
8c#]
8b
8a
8g#
=9
4f#
8g#
8f#
8a
8b#
=10
12dd
12ee
12dd
4cc#
4ff#
=11
12cc#
12dd
12cc#
4b
4ff#
=12
12b
12cc#
12b
4a
4cc#
=13
12f#
12g#
12f#
4e
4cc#
=14
12e
12f#
12e
4d#
4cc#
=15
8d
8b
8cc#
8dd
8cc#
8b
=16
8cc#
8b
4a
8cc#
8dd
=17
2ee
8ff#
8ee
=18
4dd#
8b
8cc#
4dd
=19
8d
8b
8cc#
8dd
8cc#
8b
=20
8cc#
8b
4a
8cc#
8dd
=21
2ee
16ff#
16ee
16ff#
16ee
=22
4dd#
8b
8cc#
4dd
=23
8d
8b
8cc#
8dd
8cc#
8b
=24
8cc#
8b
4a
8g#
8a
=25
4.f#
8g#
8a
8b#
=26
12dd
12ee
12dd
4cc#
4ff#
=27
12cc#
12dd
12cc#
4cc
4ff#
=28
12b
12cc#
12b
4a#
4cc#
=29
12a
12b
12a
4g#
4cc#
=30
12g#
12a
12g#
4g
4cc#
=31
12f#
12g#
12f#
8f
4g#
8g#
=32
4.g#
8b
8a
8g#
=33
4f#
8g#
8f#
8a
8b#
=34
12dd
12ee
12dd
4cc#
4ff#
=35
12cc#
12dd
12cc#
4cc
4ff#
=36
12b
12cc#
12b
4a#
4cc#
=37
4.f#
8g#
8a
8b
=38
12a
12b
12a
4g#
4cc#
=39
4.f#
8g#
8a
8b
=40
12a
12b
12a
4g#
4cc#
=41
4.f#
8g#
8a
8b
=42
8cc#
8ee
4.dd
8f#
=43
8f#
8e#
4.a
8g#
=44
8a#
8b
8b#
4cc#
8dd#
=45
*k[f#c#g#d#a#e#]
4cc#[
8cc#]
8b#
8c#
16r
16g#
=46
8b
8a#
8c#
16r
16a#
4a#
=47
4f#[
8f#]
8dd#
8f#
16r
16cc#
=48
8ee#
8ff#
8f#
24ff#
24gg#
24ff#
8ee#
8dd#
=49
4cc#[
8cc#]
8b#
8c#
16r
16g#
=50
8b
8a#
8c#
16r
16a#
4a
=51
4g#[
8g#]
8b#
8g#
16r
16cc#
=52
8cc##
8dd#
8g#
8ff#
8ee#
16r
16a#
=53
4a#[
12a#]
12b#
12a#
8g#
16r
16cc#
=54
8cc##
8dd#
8g#
8ff#
8ee#
16r
16dd#
=55
4dd#[
8dd#]
8cc#
8c#
16r
16g##
=56
8b#
8b
8c#
16r
16a#
4a#
=57
4f#[
8f#]
8dd#
8f#
16r
16cc#
=58
8ee#
8ff#
8f#
24ff#
24gg#
24ff#
8ee#
8dd#
=59
4cc#[
8cc#]
8b#
8c#
16r
16g#
=60
8b
8a#
8c#
16r
16a#
4a
=61
4g#[
8g#]
16r
16b#
8g#
16r
16cc#
=62
8cc##
8dd#
8g#
8ff#
8ee#
16r
16a#
=63
4a#[
12a#]
12b#
12a#
8g#
16r
16cc#
=64
8cc##
8dd#
8g#
8ff#
8ee#
16r
16dd#
=65
4.gg#
8ff##
8dd#
8ee#
=66
12ff#
12gg#
12ff#
8ee#
8dd#
8ee#
8cc#
=67
4.ee
8dd#
8b
8cc#
=68
12dd
12ee
12dd
8cc#
8b#
4cc#
=69
4.cc#
8b#
8g#
8a#
=70
12b
12cc#
12b
8a#
8g#
8a#
8f#
=71
4d#
8f#
8g#
8a#
8b
=72
4d#
8a#
8g#
8a#
8f#
=73
4d#
8f#
8g#
8a#
8b
=74
4d#
8a#
8g#
4a#
=75
4.gg#
8ff##
8dd#
8ee#
=76
12ff#
12gg#
12ff#
8ee#
8dd#
8ee#
8cc#
=77
4.ee
8dd#
8b
8cc#
=78
12dd
12ee
12dd
8cc#
8b#
4cc#
=79
4.cc#
8b#
8g#
8a#
=80
12b
12cc#
12b
8a#
8g#
8a#
8f#
=81
4d#
8f#
8g#
8a#
8b
=82
4d#
8a#
8g#
8a#
8f#
=83
4d#
8f#
8g#
8a#
8b
=84
4d#
8a#
8g#
8a#
8f#
=85
8a#
8g#
8a#
8f#
8a#
8g#
=86
8a#
8f#
8a#
8g#
8a#
8f#
=87
8a
8g#
8a
8f#
8a
8g#
=88
8a
8f#
8a
8g#
8a
8f#
=89
[2.a
=90
2.a]
=91
[2.a
=92
2.a]
=93
[2.g
=94
2.g]
=95
[2.g
=96
2.g_
=97
*k[f#c#g#]
4.g]
8g#
8a
8b#
=98
12dd
12ee
12dd
4cc#
4ff#
=99
12cc#
12dd
12cc#
4b#
4b
=100
12b
12cc#
12b
4a#
4cc#
=101
12a
12b
12a
4g#
4cc#
=102
12g#
12a
12g#
4f##
4cc#
=103
12f#
12g#
12f#
8e#
4g#
[8g#
=104
4.g#]
8b
8a
8g#
=105
4f#
8g#
8f#
8a
8b#
=106
12dd
12ee
12dd
4r
4ff#
=107
12cc#
12dd
12cc#
4cc
4ff#
=108
12b
12cc#
12b
4a#
4cc#
=109
4.f#
8g#
8a
8b
=110
12a
12b
12a
4g#
4cc#
=111
4.f#
8g#
8a
8b
=112
12a
12b
12a
4g#
4cc#
=113
4.f#
8g#
8a
8b
=114
8cc#
8ee
4.dd
8f#
=115
8f#
8e#
4.a
8g#
=116
8g#
8f#
4.b
8a
=117
8f##
8g#
8a
8g#
8cc#
8b
=118
8b
8a#
4.dd
8cc#
=119
8.cc#
16b#
4.gg#
8ff#
=120
4.ff#
8ee#
8b
8cc#
=121
8ee
8dd#
12dd
12ee
12dd
8cc#
8b
=122
8cc#
8b
4a
4r
=123
4r
8r
4.c#
=124
8b
8a
8r
4.d
=125
8cc#
8b
8r
4.e#
=126
8dd
8cc#
8r
16r
16b
8b
8a#
=127
8a
8g#
4r
4r
=128
8r
16r
16g#
4.gg#
8ff#
=129
8.ff#
16ee#
4.ee#
8dd
=130
8dd
8dd
4cc#
4cc#
=131
8b
8b
4a
4g
=132
2.g#
=133
4f#
4a
4g#
=134
4f#
2cc#
=135
2cc#[
8cc#]
8b
=136
4d#
8a#
8g#
8a#
8f#
=137
4d#
8f#
8g#
8a#
8b
=138
4d#
8a#
8g#
4a#
=139
4d#
8f#
8g#
8a#
8b
=140
4d#
8a#
8g#
8a#
8f#
=141
4d#
8f#
8g#
8a#
8b
=142
4d#
8a#
8g#
8a#
8f#
=143
8a#
8g#
8a#
8f#
8a#
8g#
=144
8a#
8f#
8a#
8g#
8a#
8f#
=145
8a
8g#
8a
8f#
8a
8g#
=146
8a#
8f#
8a#
8g#
8a#
8r
=147
8r
16r
16d#
4.d#
8e#
=148
8.e#
16f#
4.f#
8e#
=149
8d#
8c#
4.d#
8e#
=150
4f#
[2d#
=151
8.d#]
16d#
4.d#
8e#
=152
8.g#
16f#
4.f#
8e#
=153
8d#
8c#
4d#
4e#
=154
8.g#
16f#
4f#
4r
==
*-
